X:1
T:One more River to Cross [1]
S:John Summers (1887-1976, Marion, Indiana)
M:C|
L:1/8
R:Reel
F: https://www.slippery-hill.com/recording/one-more-river-cross-0
Z:Transcribed by Andrew Kuntz
K:G
dedB G2[G2B2]|AFAc Bd d2|dedB G2cc|BBA2 G2Bc|
dedB G2[G2B2]|AFAc BGBc|dedB G2 cc|BB A(D G2)(Bd-|
d)edB G2[G2B2]|AFAc Bdd2|BedB GBAc|BGAF G2||
|:ef|g2fg afdB|g2ed Bd3|g2 fg afdB|gfec d2ef|
gdgb a2ba|gedA Bd2(B|d)edB G2[G2B2]|AFAc Bdd2|
edBA GBAc|BGAF G2:|]

